symbolic/24x24/actions/kdenlive-select-texts.svg

<svg xmlns="http://www.w3.org/2000/svg" width="24" height="24"><defs><style id="current-color-scheme" type="text/css"></style></defs><path style="fill:currentColor;color:#323a41" d="M2 2C1 2 1 3 1 3v4h2V4h3V2zm8 0v2h3v3h2V3c0-1-1-1-1-1zM5 5v2h1.99v4h2V7H11V5zM1 9v4c0 1 1 1 1 1h4v-2H3V9zm12 0v3h-3v2h4s1 0 1-1V9z" transform="translate(4 4)"/></svg>

<svg xmlns="http://www.w3.org/2000/svg" width="24" height="24" version="1.1">
 <defs>
  <style id="current-color-scheme" type="text/css">
   .ColorScheme-Text { color:#323a41; } .ColorScheme-Highlight { color:#4285f4; } .ColorScheme-NeutralText { color:#ff9800; } .ColorScheme-PositiveText { color:#4caf50; } .ColorScheme-NegativeText { color:#f44336; }
  </style>
 </defs>
 <g transform="translate(4,4)">
  <path style="fill:currentColor" class="ColorScheme-Text" d="M 2,2 C 1,2 1,3 1,3 V 7 H 3 V 4 H 6 V 2 Z M 10,2 V 4 H 13 V 7 H 15 V 3 C 15,2 14,2 14,2 Z M 5,5 V 7 H 6.9902 V 11 H 8.9902 V 7 H 11 V 5 Z M 1,9 V 13 C 1,14 2,14 2,14 H 6 V 12 H 3 V 9 Z M 13,9 V 12 H 10 V 14 H 14 C 14,14 15,14 15,13 V 9 Z"/>
 </g>
</svg>
